packages/icons/web/rename_small.svg

<svg width="24" height="24" viewBox="0 0 24 24" fill="none" xmlns="http://www.w3.org/2000/svg">
<path d="M12 5V12.5" stroke="#212933" stroke-width="2"/>
<path d="M9 4C8.44772 4 8 4.44772 8 5C8 5.55228 8.44772 6 9 6L9 4ZM9 6H11V4L9 4L9 6Z" fill="#212933"/>
<path d="M15 6C15.5523 6 16 5.55228 16 5C16 4.44772 15.5523 4 15 4V6ZM13 6H15V4H13L13 6Z" fill="#212933"/>
<path d="M9 11.5C8.44772 11.5 8 11.9477 8 12.5C8 13.0523 8.44772 13.5 9 13.5V11.5ZM9 13.5H11V11.5H9V13.5Z" fill="#212933"/>
<path d="M15 13.5C15.5523 13.5 16 13.0523 16 12.5C16 11.9477 15.5523 11.5 15 11.5V13.5ZM13 13.5H15V11.5H13V13.5Z" fill="#212933"/>
<path d="M16 7.5C15.4477 7.5 15 7.94772 15 8.5C15 9.05228 15.4477 9.5 16 9.5V7.5ZM8 9.5C8.55228 9.5 9 9.05228 9 8.5C9 7.94772 8.55228 7.5 8 7.5V9.5ZM18 16.5H6V18.5H18V16.5ZM6 16.5V9.5H4V16.5H6ZM18 9.5V16.5H20V9.5H18ZM16 9.5H18V7.5H16V9.5ZM6 9.5H8V7.5H6V9.5ZM20 9.5C20 8.39543 19.1046 7.5 18 7.5V9.5H20ZM6 16.5H6H4C4 17.6046 4.89543 18.5 6 18.5V16.5ZM18 18.5C19.1046 18.5 20 17.6046 20 16.5H18V18.5ZM6 9.5V9.5V7.5C4.89543 7.5 4 8.39543 4 9.5H6Z" fill="#212933"/>
</svg>

<svg width="24" height="24" fill="none" xmlns="http://www.w3.org/2000/svg">
    <path d="M12 5v7.5" stroke="currentColor" stroke-width="2"/>
    <path d="M9 4a1 1 0 000 2V4zm0 2h2V4H9v2zm6 0a1 1 0 100-2v2zm-2 0h2V4h-2v2zm-4 5.5a1 1 0 100 2v-2zm0 2h2v-2H9v2zm6 0a1 1 0 100-2v2zm-2 0h2v-2h-2v2zm3-6a1 1 0 100 2v-2zm-8 2a1 1 0 000-2v2zm10 7H6v2h12v-2zm-12 0v-7H4v7h2zm12-7v7h2v-7h-2zm-2 0h2v-2h-2v2zm-10 0h2v-2H6v2zm14 0a2 2 0 00-2-2v2h2zm-14 7H4a2 2 0 002 2v-2zm12 2a2 2 0 002-2h-2v2zm-12-9v-2a2 2 0 00-2 2h2z" fill="currentColor"/>
</svg>
